src/assets/svg/icons/fa/nuevos/classic/duotone/cloud-plus classic duotone.svg

<svg xmlns="http://www.w3.org/2000/svg" viewBox="0 0 640 512"><!--! Font Awesome Pro 6.4.0 by @fontawesome - https://fontawesome.com License - https://fontawesome.com/license (Commercial License) Copyright 2023 Fonticons, Inc. --><defs><style>.fa-secondary{opacity:.4}</style></defs><path class="fa-primary" d="M296 312v64c0 13.3 10.7 24 24 24s24-10.7 24-24V312h64c13.3 0 24-10.7 24-24s-10.7-24-24-24H344V200c0-13.3-10.7-24-24-24s-24 10.7-24 24v64H232c-13.3 0-24 10.7-24 24s10.7 24 24 24h64z"/><path class="fa-secondary" d="M144 480C64.5 480 0 415.5 0 336c0-62.8 40.2-116.2 96.2-135.9c-.1-2.7-.2-5.4-.2-8.1c0-88.4 71.6-160 160-160c59.3 0 111 32.2 138.7 80.2C409.9 102 428.3 96 448 96c53 0 96 43 96 96c0 12.2-2.3 23.8-6.4 34.6C596 238.4 640 290.1 640 352c0 70.7-57.3 128-128 128H144zM296 376c0 13.3 10.7 24 24 24s24-10.7 24-24V312h64c13.3 0 24-10.7 24-24s-10.7-24-24-24H344V200c0-13.3-10.7-24-24-24s-24 10.7-24 24v64H232c-13.3 0-24 10.7-24 24s10.7 24 24 24h64v64z"/></svg>

<svg xmlns="http://www.w3.org/2000/svg" viewBox="0 0 640 512"><defs><style>.fa-secondary{opacity:.4}</style></defs><path class="fa-primary" d="M232 312C218.7 312 208 301.3 208 288C208 274.7 218.7 264 232 264H296V200C296 186.7 306.7 176 320 176C333.3 176 344 186.7 344 200V264H408C421.3 264 432 274.7 432 288C432 301.3 421.3 312 408 312H344V376C344 389.3 333.3 400 320 400C306.7 400 296 389.3 296 376V312H232z"/><path class="fa-secondary" d="M144 480C64.47 480 0 415.5 0 336C0 273.2 40.17 219.8 96.2 200.1C96.07 197.4 96 194.7 96 192C96 103.6 167.6 32 256 32C315.3 32 367 64.25 394.7 112.2C409.9 101.1 428.3 96 448 96C501 96 544 138.1 544 192C544 204.2 541.7 215.8 537.6 226.6C596 238.4 640 290.1 640 352C640 422.7 582.7 480 512 480H144zM320 400C333.3 400 344 389.3 344 376V312H408C421.3 312 432 301.3 432 288C432 274.7 421.3 264 408 264H344V200C344 186.7 333.3 176 320 176C306.7 176 296 186.7 296 200V264H232C218.7 264 208 274.7 208 288C208 301.3 218.7 312 232 312H296V376C296 389.3 306.7 400 320 400z"/></svg>
